X: 30739
T: Oró A Bhuachaillín
R: slide
M: 12/8
K: Dmajor
|:e|f2 f fed g2 g gfe|fgf fed e2 c A2 e|
fff f2 d g2 g gfe|f2 f efe d3 d2:|
|:B|A2 G FED F2 A A2 c|d2 d cBA B2 E E2 F|
A2 G FED F2 A A2 d|c2 B ABc d3 d2:|

